X: 20331
Q: "Largo Amoroso"
M: C
L: 1/16
K: Dm
(A3G) |\
{B}A4 (GF3) G4 (A2c2) | d4 (c3d) {B}A4 (f3g) |\
(a2g2) (f2e2) (c3d)f2d2 |
(c2A2) ({A}G2F2) {A}G4 (f3e) | {e}d4 (c2B2) (A2d2) (A2G2) |\
(A2c2) (d2c2) (B2A2) (G2F2) | (d2f2) (e2g2) (f3g)(a2g2) |
(f2e2) (d2^c2) {e}d4 ({ed^c}d3e/f/) |\
(d2A2) (f2d2) (A2d2) (=cBAG) | F4 (TE3F) D4 :|


